X:1
T:Hm hm hkki
C:trad.
L:1/8
M:4/4
I:linebreak $
K:C
CCCD E2 E2 | DCDE C4 | EEEF G2 G2 | FEFG E4 |$ c2 cc B2 B2 | AAAA G4 | CCCD E2 E2 | DCDE C4 |] 



